web/public/theme/harkonnen/harko_level.svg

<svg
  xmlns="http://www.w3.org/2000/svg"
  width="256"
  height="256"
  aria-label="Three stacked sci-fi level chevrons"
  viewBox="0 0 256 256"
><defs><linearGradient id="b" x1="0" x2="0" y1="0" y2="1"><stop offset="0" stop-color="#d01018" /><stop
        offset=".48"
        stop-color="#8f050a"
      /><stop offset="1" stop-color="#4f0205" /></linearGradient><linearGradient
      id="c"
      x1="0"
      x2="1"
      y1="0"
      y2="1"
    ><stop offset="0" stop-color="#ff1b24" /><stop offset="1" stop-color="#5b0206" /></linearGradient><filter
      id="a"
      width="120%"
      height="120%"
      x="-10%"
      y="-10%"
    ><feDropShadow dx="0" dy="3" flood-color="#000" flood-opacity=".55" stdDeviation="1.2" /></filter></defs><g
    filter="url(#a)"
  ><path fill="#090909" d="m128 20 97 92-22 9-75-66-75 66-22-9Z" /><path
      fill="url(#b)"
      stroke="url(#c)"
      stroke-width="2"
      d="m128 14 104 96-25 12-79-72-79 72-25-12Z"
    /><path stroke="#090909" stroke-width="5" d="M128 29v44" /><path
      fill="#080808"
      d="m119 68-35 35 27-12 17-15Zm18 0 35 35-27-12-17-15Z"
    /><path fill="#070707" d="m71 103 24-33-8 25Zm114 0-24-33 8 25Z" /><path
      fill="#090909"
      d="m128 86 104 98-25 12-79-72-79 72-25-12Z"
    /><path fill="url(#b)" stroke="url(#c)" stroke-width="2" d="m128 80 111 103-28 14-83-78-83 78-28-14Z" /><path
      stroke="#090909"
      stroke-width="5"
      d="M128 96v44"
    /><path fill="#080808" d="m119 135-35 34 27-11 17-15Zm18 0 35 34-27-11-17-15Z" /><path
      fill="#070707"
      d="m67 170 29-38-8 29Zm122 0-29-38 8 29Z"
    /><path fill="#090909" d="m128 150 112 80-28 12-84-61-84 61-28-12Z" /><path
      fill="url(#b)"
      stroke="url(#c)"
      stroke-width="2"
      d="m128 143 119 85-31 16-88-67-88 67-31-16Z"
    /><path stroke="#090909" stroke-width="5" d="M128 158v45" /><path
      fill="#080808"
      d="m119 198-35 26 27-10 17-8Zm18 0 35 26-27-10-17-8Z"
    /><path fill="#070707" d="m64 225 32-29-8 21Zm128 0-32-29 8 21Z" /></g></svg>

<svg xmlns="http://www.w3.org/2000/svg" width="256" height="256" viewBox="0 0 256 256" role="img" aria-label="Three stacked sci-fi level chevrons">
  <defs>
    <linearGradient id="crimsonSteel" x1="0" y1="0" x2="0" y2="1">
      <stop offset="0" stop-color="#d01018"/>
      <stop offset="0.48" stop-color="#8f050a"/>
      <stop offset="1" stop-color="#4f0205"/>
    </linearGradient>
    <linearGradient id="edgeRed" x1="0" y1="0" x2="1" y2="1">
      <stop offset="0" stop-color="#ff1b24"/>
      <stop offset="1" stop-color="#5b0206"/>
    </linearGradient>
    <filter id="hardShadow" x="-10%" y="-10%" width="120%" height="120%">
      <feDropShadow dx="0" dy="3" stdDeviation="1.2" flood-color="#000000" flood-opacity="0.55"/>
    </filter>
  </defs>

  <!-- Transparent background intentionally omitted. -->

  <g filter="url(#hardShadow)" stroke-linejoin="miter" stroke-linecap="butt">
    <!-- Top chevron -->
    <path d="M128 20 L225 112 L203 121 L128 55 L53 121 L31 112 Z" fill="#090909"/>
    <path d="M128 14 L232 110 L207 122 L128 50 L49 122 L24 110 Z" fill="url(#crimsonSteel)" stroke="url(#edgeRed)" stroke-width="2"/>
    <path d="M128 29 L128 73" stroke="#090909" stroke-width="5"/>
    <path d="M119 68 L84 103 L111 91 L128 76 Z" fill="#080808"/>
    <path d="M137 68 L172 103 L145 91 L128 76 Z" fill="#080808"/>
    <path d="M71 103 L95 70 L87 95 Z" fill="#070707"/>
    <path d="M185 103 L161 70 L169 95 Z" fill="#070707"/>

    <!-- Middle chevron -->
    <path d="M128 86 L232 184 L207 196 L128 124 L49 196 L24 184 Z" fill="#090909"/>
    <path d="M128 80 L239 183 L211 197 L128 119 L45 197 L17 183 Z" fill="url(#crimsonSteel)" stroke="url(#edgeRed)" stroke-width="2"/>
    <path d="M128 96 L128 140" stroke="#090909" stroke-width="5"/>
    <path d="M119 135 L84 169 L111 158 L128 143 Z" fill="#080808"/>
    <path d="M137 135 L172 169 L145 158 L128 143 Z" fill="#080808"/>
    <path d="M67 170 L96 132 L88 161 Z" fill="#070707"/>
    <path d="M189 170 L160 132 L168 161 Z" fill="#070707"/>

    <!-- Bottom chevron -->
    <path d="M128 150 L240 230 L212 242 L128 181 L44 242 L16 230 Z" fill="#090909"/>
    <path d="M128 143 L247 228 L216 244 L128 177 L40 244 L9 228 Z" fill="url(#crimsonSteel)" stroke="url(#edgeRed)" stroke-width="2"/>
    <path d="M128 158 L128 203" stroke="#090909" stroke-width="5"/>
    <path d="M119 198 L84 224 L111 214 L128 206 Z" fill="#080808"/>
    <path d="M137 198 L172 224 L145 214 L128 206 Z" fill="#080808"/>
    <path d="M64 225 L96 196 L88 217 Z" fill="#070707"/>
    <path d="M192 225 L160 196 L168 217 Z" fill="#070707"/>
  </g>
</svg>
